**kern	**silbe	**kern	**silbe
*ICvox	*	*ICvox	*
=1	=1	=1	=1
*G:	*	*G:	*
*M4/4	*	*M4/4	*
*clefG2	*	*clefF4	*
8B-	Bom	8D	Bom
16B-	ch	16r	.
[16A	bom	[16C	bom
8A]	_	8C]	_
[8G	bom	[8BB	bom
8G]	_	8BB]	_
8r	.	8r	.
4r	.	4r	.
=2	=2	=2	=2
8B-	Bom	8D	Bom
16B-	ch	16r	.
[16A	bom	[16C	bom
8A]	_	8C]	_
[8G	bom	[8BB	bom
8G]	_	8BB]	_
8r	.	8r	.
4r	.	4r	.
=3	=3	=3	=3
1r	.	1r	.
=4	=4	=4	=4
1r	.	1r	.
=5	=5	=5	=5
1r	.	1r	.
=6	=6	=6	=6
1r	.	1r	.
=7	=7	=7	=7
1r	.	1r	.
=8	=8	=8	=8
1r	.	1r	.
=9	=9	=9	=9
1r	.	1r	.
=10	=10	=10	=10
1r	.	1r	.
=11	=11	=11	=11
1r	.	1r	.
=12	=12	=12	=12
1r	.	1r	.
=13	=13	=13	=13
1r	.	1r	.
=14	=14	=14	=14
1r	.	1r	.
=15	=15	=15	=15
1r	.	1r	.
=16	=16	=16	=16
1r	.	1r	.
=17	=17	=17	=17
1r	.	1r	.
=18	=18	=18	=18
1r	.	1r	.
=19	=19	=19	=19
1r	.	1r	.
=20	=20	=20	=20
1r	.	1r	.
=21	=21	=21	=21
1r	.	1r	.
=22	=22	=22	=22
1r	.	1r	.
=23	=23	=23	=23
1r	.	1r	.
=24	=24	=24	=24
1r	.	1r	.
=25	=25	=25	=25
1r	.	1r	.
=26	=26	=26	=26
1r	.	1r	.
=27	=27	=27	=27
1r	.	1r	.
=28	=28	=28	=28
1r	.	1r	.
=29	=29	=29	=29
1r	.	1r	.
=30	=30	=30	=30
1r	.	1r	.
=31	=31	=31	=31
1r	.	1r	.
=32	=32	=32	=32
1r	.	1r	.
=33	=33	=33	=33
1r	.	1r	.
=34	=34	=34	=34
1r	.	1r	.
=35	=35	=35	=35
1r	.	1r	.
=36	=36	=36	=36
1r	.	1r	.
=37	=37	=37	=37
1r	.	1r	.
=38	=38	=38	=38
8B-	Bom	8D	Bom
16B-	ch	16r	.
[16A	bom	[16C	bom
8A]	_	8C]	_
[8G	bom	[8BB	bom
8G]	_	8BB]	_
8r	.	8r	.
4r	.	4r	.
=39	=39	=39	=39
8B-	Bom	8D	Bom
16B-	ch	16r	.
[16A	bom	[16C	bom
8A]	_	8C]	_
[8G	bom	[8BB	bom
8G]	_	8BB]	_
8r	.	8r	.
4r	.	4r	.
=40	=40	=40	=40
8B-	Bom	8D	Bom
16B-	ch	16r	.
[16A	bom	[16C	bom
8A]	_	8C]	_
[8G	bom	[8BB	bom
8G]	_	8BB]	_
8r	.	8r	.
4r	.	4r	.
=41	=41	=41	=41
8B-	Bom	8D	Bom
16B-	ch	16r	.
[16A	bom	[16C	bom
8A]	_	8C]	_
[8G	bom	[8BB	bom
8G]	_	8BB]	_
8r	.	8r	.
4r	.	4r	.
=42	=42	=42	=42
8B-	Bom	8D	Bom
16B-	ch	16r	.
[16A	bom	[16C	bom
8A]	_	8C]	_
[8G	bom	[8BB	bom
8G]	_	8BB]	_
8r	.	8r	.
4r	.	4r	.
=43	=43	=43	=43
8B-	Bom	8D	Bom
16B-	ch	16r	.
[16A	bom	[16C	bom
8A]	_	8C]	_
[8G	bom	[8BB	bom
8G]	_	8BB]	_
8r	.	8r	.
4r	.	4r	.
=44	=44	=44	=44
8B-	Bom	8D	Bom
16B-	ch	16r	.
[16A	bom	[16C	bom
8A]	_	8C]	_
[8G	bom	[8BB	bom
8G]	_	8BB]	_
8r	.	8r	.
4r	.	4r	.
=45	=45	=45	=45
1r	.	1r	.
=46	=46	=46	=46
1r	.	1r	.
=47	=47	=47	=47
1r	.	1r	.
=48	=48	=48	=48
1r	.	1r	.
=49	=49	=49	=49
1r	.	1r	.
=50	=50	=50	=50
1r	.	1r	.
=51	=51	=51	=51
1r	.	1r	.
=52	=52	=52	=52
1r	.	1r	.
=53	=53	=53	=53
1r	.	1r	.
=54	=54	=54	=54
1r	.	1r	.
=55	=55	=55	=55
1r	.	1r	.
=56	=56	=56	=56
1r	.	1r	.
=57	=57	=57	=57
1r	.	1r	.
=58	=58	=58	=58
1r	.	1r	.
=59	=59	=59	=59
8B-	Bom	8D	Bom
16B-	ch	16r	.
[16A	bom	[16C	bom
8A]	_	8C]	_
[8G	bom	[8BB	bom
8G]	_	8BB]	_
8r	.	8r	.
4r	.	4r	.
=60	=60	=60	=60
8B-	Bom	8D	Bom
16B-	ch	16r	.
[16A	bom	[16C	bom
8A]	_	8C]	_
[8G	bom	[8BB	bom
8G]	_	8BB]	_
8r	.	8r	.
4r	.	4r	.
=61	=61	=61	=61
8B-	Bom	8D	Bom
16B-	ch	16r	.
[16A	bom	[16C	bom
8A]	_	8C]	_
[8G	bom	[8BB	bom
8G]	_	8BB]	_
8r	.	8r	.
4r	.	4r	.
=62	=62	=62	=62
8B-	Bom	8D	Bom
16B-	ch	16r	.
[16A	bom	[16C	bom
8A]	_	8C]	_
[8G	bom	[8BB	bom
8G]	_	8BB]	_
8r	.	8r	.
4r	.	4r	.
=63	=63	=63	=63
8B-	Bom	8D	Bom
16B-	ch	16r	.
[16A	bom	[16C	bom
8A]	_	8C]	_
[8G	bom	[8BB	bom
8G]	_	8BB]	_
8r	.	8r	.
4r	.	4r	.
=64	=64	=64	=64
8B-	Bom	8D	Bom
16B-	ch	16r	.
[16A	bom	[16C	bom
8A]	_	8C]	_
[8G	bom	[8BB	bom
8G]	_	8BB]	_
8r	.	8r	.
4r	.	4r	.
=65	=65	=65	=65
8B-	Bom	8D	Bom
16B-	ch	16r	.
[16A	bom	[16C	bom
8A]	_	8C]	_
[8G	bom	[8BB	bom
8G]	_	8BB]	_
8r	.	8r	.
4r	.	4r	.
=66	=66	=66	=66
8B-	Bom	8D	Bom
16B-	ch	16r	.
[16A	bom	[16C	bom
8A]	_	8C]	_
[8G	bom	[8BB	bom
8G]	_	8BB]	_
8r	.	8r	.
4r	.	4r	.
=67	=67	=67	=67
8B-	Bom	8D	Bom
16B-	ch	16r	.
[16A	bom	[16C	bom
8A]	_	8C]	_
[8G	bom	[8BB	bom
8G]	_	8BB]	_
8r	.	8r	.
4r	.	4r	.
=68	=68	=68	=68
8B-	Bom	8D	Bom
16B-	ch	16r	.
[16A	bom	[16C	bom
8A]	_	8C]	_
[8G	bom	[8BB	bom
8G]	_	8BB]	_
8r	.	8r	.
4r	.	4r	.
=69	=69	=69	=69
8B-	Bom	8D	Bom
16B-	ch	16r	.
[16A	bom	[16C	bom
8A]	_	8C]	_
[8G	bom	[8BB	bom
8G]	_	8BB]	_
8r	.	8r	.
4r	.	4r	.
=70	=70	=70	=70
8B-	Bom	8D	Bom
16B-	ch	16r	.
[16A	bom	[16C	bom
8A]	_	8C]	_
[8G	bom	[8BB	bom
8G]	_	8BB]	_
8r	.	8r	.
4r	.	4r	.
*-	*-	*-	*-
!!!ENC: Nathaniel Condit-Schultz